www/assets/icons/conveyor_belt_outline.svg

<svg width="24" height="24" viewBox="0 0 24 24" xmlns="http://www.w3.org/2000/svg" fill='currentColor'><mask id="mask0_32484_485" style="mask-type:alpha" maskUnits="userSpaceOnUse" x="0" y="0" width="24" height="24"><rect width="24" height="24"/></mask><g mask="url(#mask0_32484_485)"><path d="M5 21C4.16667 21 3.45833 20.7083 2.875 20.125C2.29167 19.5417 2 18.8333 2 18C2 17.1667 2.29167 16.4583 2.875 15.875C3.45833 15.2917 4.16667 15 5 15H19C19.8333 15 20.5417 15.2917 21.125 15.875C21.7083 16.4583 22 17.1667 22 18C22 18.8333 21.7083 19.5417 21.125 20.125C20.5417 20.7083 19.8333 21 19 21H5ZM5 19H19C19.2833 19 19.5208 18.9042 19.7125 18.7125C19.9042 18.5208 20 18.2833 20 18C20 17.7167 19.9042 17.4792 19.7125 17.2875C19.5208 17.0958 19.2833 17 19 17H5C4.71667 17 4.47917 17.0958 4.2875 17.2875C4.09583 17.4792 4 17.7167 4 18C4 18.2833 4.09583 18.5208 4.2875 18.7125C4.47917 18.9042 4.71667 19 5 19ZM10 13C9.71667 13 9.47917 12.9042 9.2875 12.7125C9.09583 12.5208 9 12.2833 9 12V4C9 3.71667 9.09583 3.47917 9.2875 3.2875C9.47917 3.09583 9.71667 3 10 3H18C18.2833 3 18.5208 3.09583 18.7125 3.2875C18.9042 3.47917 19 3.71667 19 4V12C19 12.2833 18.9042 12.5208 18.7125 12.7125C18.5208 12.9042 18.2833 13 18 13H10ZM11 11H17V5H11V11ZM2 10.95V9.025H6.925V10.95H2ZM12 8H16V6.025H12V8ZM4 8H6.925V6.025H4V8Z"/></g></svg>

<svg xmlns="http://www.w3.org/2000/svg" width="24" height="24" viewBox="0 0 24 24" fill='currentColor'><mask id="a" width="24" height="24" x="0" y="0" maskUnits="userSpaceOnUse" style="mask-type:alpha"><path d="M0 0h24v24H0z"/></mask><g mask="url(#a)"><path d="M5 21a2.9 2.9 0 0 1-2.125-.875A2.9 2.9 0 0 1 2 18q0-1.25.875-2.125A2.9 2.9 0 0 1 5 15h14q1.25 0 2.125.875T22 18t-.875 2.125A2.9 2.9 0 0 1 19 21zm0-2h14q.424 0 .712-.288A.97.97 0 0 0 20 18a.97.97 0 0 0-.288-.712A.97.97 0 0 0 19 17H5a.97.97 0 0 0-.713.288A.97.97 0 0 0 4 18q0 .424.287.712Q4.576 19 5 19m5-6a.97.97 0 0 1-.713-.287A.97.97 0 0 1 9 12V4q0-.424.287-.712A.97.97 0 0 1 10 3h8q.424 0 .712.288Q19 3.575 19 4v8q0 .424-.288.713A.97.97 0 0 1 18 13zm1-2h6V5h-6zm-9-.05V9.025h4.925v1.925zM12 8h4V6.025h-4zM4 8h2.925V6.025H4z"/></g></svg>
